X: 6165
T: Captain Sudley
R: reel
M: 4/4
K: Dmajor
A|DADA DEFG|F2 EA D4|d3 c d2 e2|d4 A4|
dcde f2 d2|cBcd e2 c2|d2 FG A2 A2|G2 FE F4||
F2 F2 FGAF|F2 EA D4|F2 FE F2 A2|d2 e2 f4|
F2 D2 E2 DE|F2 D2 E2 D/E/F|GFED FEDA|D4 D4||
d3 c d2 e2|f4 d4|c2 cB ABcd|e4 c4|
d2 de f2 d2|cBcd e2 c2|d2 FG A2 A2|G2 FE F4||
F2 F2 FGAF|F8|F2 FE FGAB|c8|
F4 E2 D2|BABc d2 B2|A2 d2 A2 G2|G2 FE F4||

